X:276
%%etbk:tnset id:84,pos:2,rep:3x,ant:
%%etbk:wsite http://www.thesession.org/tunes/display/382
%%etbk:pldat 2016-09-17T14:03,2016-09-13T15:34,2016-08-05T17:07,2015-07-07T10:19,2014-12-31T15:04,2014-09-24T16:51,2014-05-19T19:05,2014-05-17T14:29,2014-05-09T19:07,2014-03-27T18:08,2014-03-15T16:26,2014-03-09T15:18,2013-11-27T18:17,2013-10-21T18:39,2013-09-02T18:07,2013-08-28T17:24,2013-05-15T15:26,2013-05-05T13:35
T: Battering Ram, The
Z: Piano Box Version by Martin Fleischmann
H: Created 2013-02-19 /  Last Modified 2013-02-19
M: 6/8
L: 1/8
R: jig
K: Dmaj
!3!B |:!5!d!3!B!1!G !3!BAG | !5!dBG !1!G2B | dBG A!1!G!2!E | !4!G!2!E!1!D D2!3!B |
!5!dBG BAG | !3!BdB BAG | AGA BAB |1 !1!G!2!E!1!D D2B|2 GED D2!4!d :||
|: !1!d!2!e!3!g !4!aga | !5!b!3!g!2!e !2!e!1!d!2!B | !1!deg !4!aga | !5!bge !2!e!3!g!4!a |
!5!bag !4!age | !4!g!3!g!4!g !2!e!4!g!2!e | !1!d!3!B!1!G !2!A!1!G!2!E |1 GED D2d|2 GED D2!5!d :||
|: !3!B2G A2G | !3!B2!1!D D2!3!B | !3!BAG !2!A!1!G!2!E | !4!G!2!E!1!D D2!5!d |
!3!B2G A2G | BdB BAG | !2!AGA !3!BAB  |1 GED D2!5!d|2 GED D2!3!B :||


